X:196
T:The Dreadnaught (b)
M:3/4
L:1/8
Q:1/4=110
K:Cm
G2|\
G2 A2 G2|F2 E2 D2|E2 D2 C2|=B,4 G,2|
C2 D2 C2|E2 D2 C2|B,2C2 D2|E4 E2|
E4 DC|B,2 C2 B,B,|B,2C2 B,2|B4 BB|
c4 GG|A2 G2 FF|G2 F2 E2|F2 E2 D2|
C6|G6|F2 E2 D2|C4||
